X: 21341
M: 2/4
L: 1/16
K: D
V: 1 name="1"
dc |\
cd |\
e4 c2A2 | edcd B2e2 | c2d2B2c2 | A2B2c2 cd |\
e4 c2A2 | edcd B2e2 | c2d2B2c2 | A4 "^D.C."A4 |]
(d2e2f2)A2 | (d2e2f2)A2 | (e2f2g2)c2 | (d2e2f2)A2 |\
d2e2f2A2 | d2e2f2A2 | e2f2g2c2 | d4- "^D.C."d2 |]


